app/images/filter.svg

<svg width="20" height="20" viewBox="0 0 20 20" fill="none" xmlns="http://www.w3.org/2000/svg">
<path d="M2.85714 14.6714V0.714282C2.85714 0.516782 2.69714 0.35714 2.5 0.35714C2.30286 0.35714 2.14286 0.516782 2.14286 0.714282V14.6714C0.933214 14.8457 0 15.8861 0 17.1429C0 18.5211 1.12143 19.6429 2.5 19.6429C3.87857 19.6429 5 18.5211 5 17.1429C5 15.8861 4.06679 14.8457 2.85714 14.6714ZM2.5 18.9286C1.51536 18.9286 0.714286 18.1275 0.714286 17.1429C0.714286 16.1582 1.51536 15.3571 2.5 15.3571C3.48464 15.3571 4.28571 16.1582 4.28571 17.1429C4.28571 18.1275 3.48464 18.9286 2.5 18.9286Z" fill="white"/>
<path d="M10.3566 7.39107V0.714282C10.3566 0.516782 10.1966 0.35714 9.99942 0.35714C9.80228 0.35714 9.64228 0.516782 9.64228 0.714282V7.36857C8.35585 7.51 7.35156 8.60285 7.35156 9.92607C7.35156 11.2493 8.35585 12.3421 9.64228 12.4836V19.2857C9.64228 19.4832 9.80228 19.6429 9.99942 19.6429C10.1966 19.6429 10.3566 19.4832 10.3566 19.2857V12.4611C11.5708 12.255 12.4994 11.1982 12.4994 9.92607C12.4994 8.65392 11.5708 7.59714 10.3566 7.39107ZM9.92549 11.7857C8.90013 11.7857 8.06585 10.9514 8.06585 9.92607C8.06585 8.90071 8.89978 8.06642 9.92549 8.06642C10.9512 8.06642 11.7851 8.90071 11.7851 9.92607C11.7851 10.9514 10.9508 11.7857 9.92549 11.7857Z" fill="white"/>
<path d="M20 2.85714C20 1.47893 18.8786 0.35714 17.5 0.35714C16.1214 0.35714 15 1.47893 15 2.85714C15 4.11392 15.9332 5.15428 17.1429 5.32857V19.2857C17.1429 19.4832 17.3029 19.6429 17.5 19.6429C17.6971 19.6429 17.8571 19.4832 17.8571 19.2857V5.32857C19.0668 5.15428 20 4.11392 20 2.85714ZM17.5 4.64285C16.5154 4.64285 15.7143 3.84178 15.7143 2.85714C15.7143 1.8725 16.5154 1.07143 17.5 1.07143C18.4846 1.07143 19.2857 1.8725 19.2857 2.85714C19.2857 3.84178 18.4846 4.64285 17.5 4.64285Z" fill="white"/>
</svg>

<svg width="20" height="20" fill="none" xmlns="http://www.w3.org/2000/svg"><path d="M2.857 14.671V.714a.357.357 0 1 0-.714 0v13.957A2.502 2.502 0 0 0 0 17.143c0 1.378 1.121 2.5 2.5 2.5S5 18.52 5 17.143a2.502 2.502 0 0 0-2.143-2.472zM2.5 18.93a1.788 1.788 0 0 1-1.786-1.786c0-.985.801-1.786 1.786-1.786s1.786.801 1.786 1.786-.801 1.786-1.786 1.786zM10.357 7.391V.714a.357.357 0 1 0-.715 0V7.37a2.577 2.577 0 0 0-2.29 2.557 2.577 2.577 0 0 0 2.29 2.558v6.802a.357.357 0 1 0 .715 0V12.46a2.576 2.576 0 0 0 2.142-2.535 2.576 2.576 0 0 0-2.142-2.535zm-.432 4.395a1.862 1.862 0 0 1-1.86-1.86c0-1.025.835-1.86 1.86-1.86 1.026 0 1.86.835 1.86 1.86 0 1.025-.834 1.86-1.86 1.86zM20 2.857c0-1.378-1.121-2.5-2.5-2.5a2.503 2.503 0 0 0-2.5 2.5c0 1.257.933 2.297 2.143 2.472v13.957a.357.357 0 1 0 .714 0V5.329A2.502 2.502 0 0 0 20 2.857zm-2.5 1.786a1.788 1.788 0 0 1-1.786-1.786c0-.985.801-1.786 1.786-1.786s1.786.802 1.786 1.786c0 .985-.801 1.786-1.786 1.786z" fill="#fff"/></svg>
